svg/logo/notion_fill.svg

<?xml version="1.0" encoding="UTF-8"?>
<svg width="24px" height="24px" viewBox="0 0 24 24" version="1.1" xmlns="http://www.w3.org/2000/svg" xmlns:xlink="http://www.w3.org/1999/xlink">
    <title>notion_fill</title>
    <g id="Icon" stroke="none" stroke-width="1" fill="none" fill-rule="evenodd">
        <g id="Logo" transform="translate(-864.000000, -240.000000)">
            <g id="notion_fill" transform="translate(864.000000, 240.000000)">
                <path d="M24,0 L24,24 L0,24 L0,0 L24,0 Z M12.5935,23.2578 L12.5819,23.2595 L12.5109,23.295 L12.4919,23.2987 L12.4767,23.295 L12.4057,23.2595 C12.3958,23.2564 12.387,23.259 12.3821,23.2649 L12.378,23.2758 L12.3609,23.7031 L12.3659,23.7235 L12.3769,23.7357 L12.4805,23.8097 L12.4953,23.8136 L12.5071,23.8097 L12.6107,23.7357 L12.6233,23.7197 L12.6267,23.7031 L12.6096,23.2758 C12.6076,23.2657 12.601,23.2593 12.5935,23.2578 Z M12.8584,23.1453 L12.8445,23.1473 L12.6598,23.2397 L12.6499,23.2499 L12.6472,23.2611 L12.6651,23.6906 L12.6699,23.7034 L12.6784,23.7105 L12.8793,23.8032 C12.8914,23.8069 12.9022,23.803 12.9078,23.7952 L12.9118,23.7812 L12.8777,23.1665 C12.8753,23.1546 12.8674,23.147 12.8584,23.1453 Z M12.143,23.1473 C12.1332,23.1424 12.1222,23.1453 12.1156,23.1526 L12.1099,23.1665 L12.0758,23.7812 C12.0751,23.7927 12.0828,23.8019 12.0926,23.8046 L12.1083,23.8032 L12.3092,23.7105 L12.3186,23.7024 L12.3225,23.6906 L12.3404,23.2611 L12.3372,23.2485 L12.3278,23.2397 L12.143,23.1473 Z" id="MingCute" fill-rule="nonzero"></path>
                <path d="M17.9391502,2.4340345 L18.1291,2.55073 L20.1094,3.8709 C20.6194333,4.21091917 20.9427569,4.76398236 20.9931023,5.36886759 L21,5.535 L21,18.0738 C21,19.066645 20.2738485,19.9003792 19.3078486,20.050032 L19.1534,20.0679 L7.62403,20.9548 C6.99905583,21.0028333 6.39127375,20.7551729 5.97829677,20.2922333 L5.87063,20.1607 L3.6,17.1332 C3.25380444,16.6716 3.04899358,16.1212691 3.00775407,15.5487885 L3,15.3332 L3,4.92585 C3,3.9330335 3.72616053,3.09921945 4.69216133,2.94960148 L4.84661,2.93174 L16.2349,2.05571 C16.8295667,2.00996778 17.4226531,2.14259593 17.9391502,2.4340345 Z M19,7.0797 L8,7.92585 L8,18.9199 L19,18.0738 L19,7.0797 Z M16,8.49982 C16.5523,8.49982 17,8.94753 17,9.49982 L17,16.4998 C17,17.0521 16.5523,17.4998 16,17.4998 L15.5,17.4998 C15.1527,17.4998 14.8303,17.3197 14.6483,17.0239 L12,12.7204 L12,16.9998 C12,17.5521 11.5523,17.9998 11,17.9998 C10.4477,17.9998 10,17.5521 10,16.9998 L10,9.99982 C10,9.44753 10.4477,8.99982 11,8.99982 L11.5,8.99982 C11.8473,8.99982 12.1697,9.17997 12.3517,9.47572 L15,13.7793 L15,9.49982 C15,8.94753 15.4477,8.49982 16,8.49982 Z M16.3883,4.04982 L6.24451,4.83012 L7.38188,5.96749 L18.3797,5.1215 L17.0197,4.21483 C16.8336,4.09077 16.6113,4.03267 16.3883,4.04982 Z" id="形状" fill="#09244B"></path>
            </g>
        </g>
    </g>
</svg>

<svg xmlns="http://www.w3.org/2000/svg" width="24" height="24"><g fill="none" fill-rule="evenodd"><path d="M24 0v24H0V0h24ZM12.594 23.258l-.012.002-.071.035-.02.004-.014-.004-.071-.036c-.01-.003-.019 0-.024.006l-.004.01-.017.428.005.02.01.013.104.074.015.004.012-.004.104-.074.012-.016.004-.017-.017-.427c-.002-.01-.009-.017-.016-.018Zm.264-.113-.014.002-.184.093-.01.01-.003.011.018.43.005.012.008.008.201.092c.012.004.023 0 .029-.008l.004-.014-.034-.614c-.003-.012-.01-.02-.02-.022Zm-.715.002a.023.023 0 0 0-.027.006l-.006.014-.034.614c0 .012.007.02.017.024l.015-.002.201-.093.01-.008.003-.011.018-.43-.003-.012-.01-.01-.184-.092Z"/><path fill="#09244B" d="m17.94 2.434.19.117 1.98 1.32a2 2 0 0 1 .883 1.498l.007.166v12.539a2 2 0 0 1-1.692 1.976l-.155.018-11.529.887a2 2 0 0 1-1.646-.663l-.107-.131L3.6 17.133a3 3 0 0 1-.592-1.584L3 15.333V4.926A2 2 0 0 1 4.692 2.95l.155-.018 11.388-.876a3 3 0 0 1 1.704.378ZM19 7.08 8 7.926V18.92l11-.846V7.08ZM16 8.5a1 1 0 0 1 1 1v7a1 1 0 0 1-1 1h-.5a1 1 0 0 1-.852-.476L12 12.72V17a1 1 0 1 1-2 0v-7a1 1 0 0 1 1-1h.5a1 1 0 0 1 .852.476L15 13.779V9.5a1 1 0 0 1 1-1Zm.388-4.45-10.143.78 1.137 1.137 10.998-.845-1.36-.907a1 1 0 0 0-.632-.165Z"/></g></svg>
